X: 76
T:Prince Charlie's Welcome to Skye
% Nottingham Music Database
S:KMM3 p45, via EF
M:4/4
L:1/4
K:G
P:A
g/2e/2|"G"dG c/2B/2A/2G/2|"G"dG c/2B/2A/2G/2|"Am"eA A/2B/2c/2A/2|\
"Am"eA "D7"AB/2c/2|
"G"dc/2B/2 "C"gf/2e/2|"G"dc/2B/2 c/2B/2A/2G/2|"C"B/2A/2G/2E/2 D/2E/2G/2A/2|\
"G"BG G:|
P:B
g/2a/2|"G"bg/2b/2 "D"af/2a/2|"G"gd/2g/2 "Em"e/2d/2c/2B/2|"Am"eA A/2B/2c/2A/2|\
"Am"eA "D7"Ag/2a/2|
"G"bg/2b/2 "D"af/2a/2|"G"gd/2g/2 "Em"e/2d/2c/2B/2|"C"B/2A/2G/2E/2 D/2E/2G/2A/2\
|"G"BG G:|<end>
<start>
